assets/images/script/n-3-mid.svg

<svg fill="none" height="156" viewBox="0 0 324 156" width="324" xmlns="http://www.w3.org/2000/svg"><path d="m12.5 36.8688c11.087 8.0632 39.9495-3.8675 44.5253-15.6339 3.1995-8.2274-14.7773-12.90985-19.725-13.22299-12.802-.81025-29.449 8.46679-33.60544 21.11299-5.34892 16.2744 15.33144 31.5428 27.90714 34.0761 27.2385 5.4869 59.5952-.1067 84.014-12.9308 13.301-6.9854 26.325-22.4827 30.975-37.3636.567-1.8133-.386-6.0366.073-4.3833 2.838 10.2166 7.914 19.3523 13.442 28.3455 13.345 21.7104 27.13 35.9137 36.163 59.9187 7.56 20.0915 5.307 28.2125 3.799 35.6815-2.531 12.531-10.627 25.284-17.314 17.826-5.278-5.887-4.706-23.409-3.927-28.2 3.885-23.9179 8.133-32.6549 21.903-57.3749 13.77-24.7201 26.469-29.2077 49.454-43.4852 18.395-11.42625 45.51-21.686085 67.722-17.60631 9.097 1.67087-3.737 7.21091-6.356 8.40141" stroke="#000" stroke-linecap="round" stroke-width="5"/></svg>

<svg width="324" height="156" viewBox="0 0 324 156" fill="none" xmlns="http://www.w3.org/2000/svg">
<path d="M12.5 36.8688C23.587 44.932 52.4495 33.0013 57.0253 21.2349C60.2248 13.0075 42.248 8.32505 37.3003 8.01191C24.4983 7.20166 7.8513 16.4787 3.69486 29.1249C-1.65406 45.3993 19.0263 60.6677 31.602 63.201C58.8405 68.6879 91.1972 63.0943 115.616 50.2702C128.917 43.2848 141.941 27.7875 146.591 12.9066C147.158 11.0933 146.205 6.87 146.664 8.5233C149.502 18.7399 154.578 27.8756 160.106 36.8688C173.451 58.5792 187.236 72.7825 196.269 96.7875C203.829 116.879 201.576 125 200.068 132.469C197.537 145 189.441 157.753 182.754 150.295C177.476 144.408 178.048 126.886 178.827 122.095C182.712 98.1771 186.96 89.4401 200.73 64.7201C214.5 40 227.199 35.5124 250.184 21.2349C268.579 9.80865 295.694 -0.451185 317.906 3.62859C327.003 5.29946 314.169 10.8395 311.55 12.03" stroke="black" stroke-width="5" stroke-linecap="round"/>
</svg>
